X:1
T:Title
%%score { ( 1 4 ) | ( 2 3 ) }
L:1/8
M:4/4
K:Eb
V:1 treble nm="Grand Piano"
V:4 treble 
V:2 bass 
V:3 bass 
V:1
 z4 z2 z[Q:1/4=100] B | [GB][B,EG][B,EG][B,EG] [EG][B,EGB][B,EGB][B,EGB] | z4 [FA]4 | z4 z .B3 | %4
[M:7/8] z G2 z z z2 |[M:1/8] E |[M:4/4] E- [Ec]2 c cAAe | e B2 [EGB] [EGB]3 [B,FA] | %8
 [B,EG]3[K:bass] [E,E] [E,F] E2 C[Q:1/4=99][Q:1/4=97] | %9
[M:7/8] z[K:treble] B2 z z z2[Q:1/4=96][Q:1/4=94][Q:1/4=93][Q:1/4=91][Q:1/4=90][Q:1/4=88][Q:1/4=87][Q:1/4=85][Q:1/4=84][Q:1/4=82][Q:1/4=81][Q:1/4=79][Q:1/4=78][Q:1/4=76] |] %10
V:2
 z4 z2 z G | z G,G,G, z G,G,G, | z A,A,A, z A,A,A, | z A,A,A, z A,A,A, | %4
[M:7/8] z [G,B,E][G,B,] [G,B,E] [E,G,B,E]3 |[M:1/8] E, | %6
[M:4/4] A, A,2 [A,E] [A,E][A,CE][A,CE][A,,CE] | B, E2 E, E,3 D, | E,3 G,, z A,2 [A,,E,A,] | %9
[M:7/8] [E,G,][G,E]F, [B,,A,] [E,G,]3 |] %10
V:3
 x8 | E,2 z2 E,2 z2 | F,2 z2 F,2 z2 | D,2 z2 B,,2 z2 |[M:7/8] E,2 z z z z2 |[M:1/8] x |[M:4/4] x8 | %7
 E,4 z4 | z4 A,,4 |[M:7/8] B,,3 z z z2 |] %10
V:4
 x8 | x8 | [GB][B,DFA][B,DFA][B,DFA] z [B,D][B,D][B,DFA] | %3
 [FA][B,DF][B,DF][B,DF] [DF][B,D][B,D][B,DFA] |[M:7/8] [FA] z E G G3 |[M:1/8] x | %6
[M:4/4] .C2 z2 z4 | G4 z4 | z4[K:bass] C4 |[M:7/8] B,[K:treble] z D [DB] E3 |] %10

